X: 1
T:Graf Spee, The
R:reel
H:Also played in D, see #484, #662
H:Related to "The Grand Spey", #642
Z:id:hn-reel-681
M:C|
K:C
EDCD EG~G2|AGcG AGcG|EDCD EG~G2|AGcG EDD2:|
|:efed cBcA|GE~E2 GAcd|1 efed cBcA|GEcE EDD2:|2 eaag (3efg ed|cAGE EDD2||
|:eg~g2 gedg|eaag ~a3g|eged cBcd|eaag (3efg dg:|
|:eccB cAGE|Gced cAGE|GAcd ecdc|AGcG EDD2:|
egcg egcg|fada fadf|ecgc ecdc|ABcd ed~d2|
e2ae gedf|ecdB cAGE|GAcd ecdc|AGcG EDD2||
